src/assets/icons/weeks,simple,08.svg

<svg width="48" height="48" viewBox="0 0 48 48" fill="none" xmlns="http://www.w3.org/2000/svg">
<rect opacity="0.2" x="5" y="5" width="38" height="38" rx="4" fill="black"/>
<path d="M5 13C5 9.22876 5 7.34315 6.17157 6.17157C7.34315 5 9.22876 5 13 5H35C38.7712 5 40.6569 5 41.8284 6.17157C43 7.34315 43 9.22876 43 13V15H5V13Z" fill="black"/>
<path d="M23.9925 38.2386C27.93 38.2386 30.7596 36.1335 30.7681 33.304C30.7596 31.1222 29.0806 29.3409 26.984 28.9915V28.8722C28.8079 28.4972 30.1119 26.9205 30.1204 25.0028C30.1119 22.3011 27.521 20.3068 23.9925 20.3068C20.4556 20.3068 17.8647 22.3011 17.8732 25.0028C17.8647 26.9119 19.1516 28.4972 21.0096 28.8722V28.9915C18.8789 29.3409 17.217 31.1222 17.2255 33.304C17.217 36.1335 20.055 38.2386 23.9925 38.2386ZM23.9925 35.5284C22.2369 35.5284 21.0607 34.4886 21.0607 33.0142C21.0607 31.5057 22.2965 30.4148 23.9925 30.4148C25.68 30.4148 26.9244 31.5057 26.9244 33.0142C26.9244 34.4972 25.7397 35.5284 23.9925 35.5284ZM23.9925 27.7301C22.5181 27.7301 21.4698 26.767 21.4698 25.3864C21.4698 24.0227 22.5011 23.0852 23.9925 23.0852C25.4755 23.0852 26.5153 24.0312 26.5153 25.3864C26.5153 26.767 25.4585 27.7301 23.9925 27.7301Z" fill="black"/>
</svg>

<svg xmlns="http://www.w3.org/2000/svg" width="48" height="48" fill="none" viewBox="0 0 48 48">
  <rect width="38" height="38" x="5" y="5" fill="#000" opacity=".2" rx="4"/>
  <path fill="#000" d="M5 13c0-3.771 0-5.657 1.172-6.828C7.343 5 9.229 5 13 5h22c3.771 0 5.657 0 6.828 1.172C43 7.343 43 9.229 43 13v2H5v-2zM23.992 38.239c3.938 0 6.768-2.105 6.776-4.935-.008-2.182-1.687-3.963-3.784-4.313v-.119c1.824-.375 3.128-1.951 3.136-3.87-.008-2.7-2.599-4.695-6.128-4.695-3.536 0-6.127 1.994-6.119 4.696-.008 1.909 1.279 3.494 3.137 3.87v.118c-2.131.35-3.793 2.131-3.785 4.313-.008 2.83 2.83 4.935 6.767 4.935zm0-2.71c-1.755 0-2.931-1.04-2.931-2.515 0-1.508 1.236-2.6 2.931-2.6 1.688 0 2.932 1.092 2.932 2.6 0 1.483-1.184 2.514-2.931 2.514zm0-7.799c-1.474 0-2.522-.963-2.522-2.344 0-1.363 1.031-2.3 2.523-2.3 1.483 0 2.522.945 2.522 2.3 0 1.381-1.056 2.344-2.523 2.344z"/>
</svg>
